X:1
T:60 Lessons for 2 Guitars, Op.168 - Joseph Küffner (1776 - 1856)
T:Leçon No.58
T:60 Lessons for 2 Guitars, Op.168 "à l'usage des commençants"
T:Joseph Küffner (1776 - 1856)
%%score { ( 1 2 ) ( 3 4 ) } { ( 5 6 ) ( 7 8 ) }
L:1/8
Q:3/8=48
M:6/8
K:A
V:1 treble-8 nm="Classical Guitar"
V:2 treble-8 
V:3 tab stafflines=6 strings=E2,A2,D3,G3,B3,E4 nostems nm="Guitare classique [Tablature]"
V:4 tab stafflines=6 strings=E2,A2,D3,G3,B3,E4 nostems 
V:5 treble-8 nm="Guitare classique"
V:6 treble-8 
V:7 tab stafflines=6 strings=E2,A2,D3,G3,B3,E4 nostems nm="Guitare classique [Tablature]"
V:8 tab stafflines=6 strings=E2,A2,D3,G3,B3,E4 nostems 
V:1
"_""^Andante" e | e2 c c2 B | A2 B c2 e | d2 B cdc | B3 z2 e |"_" [ce]ca afd | [ce]2 c A2 e | %7
 [ce]c!2!a (b/a/).g/.b/.a/.f/ | [Ace]3 z2 e | [Bdg]>fe [Bdg]>fe | [Ace]2 [ca] [ca]2 (a/e/) | %11
 [E,Ac]z[E,Ac] [E,GB]z!arpeggio![E,GBe] | [Ac]3- [Ac]2 (a/e/) | [E,Ac]2 [E,Ac] [E,GB]2 [E,GBe] | %14
 A3- A z"_" e | c2 c B2 B | A3- A z"_" =c | =c2 c c2 c | [GB]e/>(^d/e/>)(d/ e) z [E,B=d] | %19
 [E,Bd]2 [E,Bd] [E,Bd]2 [E,Bd] | [A=c] a/>(g/a/>)(g/ a) z (=c/d/) | [=G=ce]2 e{/=g} =fef | %22
!<(! [=G=c=g]2 ^g!<)!!>(! a.=g/.=f/.e/.d/!>)! | %23
 !arpeggio![=G,E=G=c]2 !arpeggio![G,EGc] [Ge]2 [=Fd] | [E=c]3 z2 e | !arpeggio![^GBe]BB d2 =c | %26
 [GB]e/>(^d/e/>)(d/ e) z e | [GBe].!4!b/.g/.e/.d/ [A=c].a/.e/.d/.c/ | [GB]e/>(^d/e/>)(d/ e2) e | %29
 .d/.^c/(B/c/) a .e/.d/(c/d/) a |!<(! e2 ^e!<)! !arpeggio!!fermata![DAdf]3/2!<(! .f/.g/.a/!<)! | %31
"_" B2 z e2 z | c2 z2 z e | .d/.c/(B/c/) !>!a/>c/ .e/.d/(c/d/) !>!a/>f/ | %34
!<(! e2 ^e!<)! !arpeggio!!fermata![DAdf]3/2!<(! .f/.g/.a/!<)! |"_" B2 z e2 z | [A,A]2 z2 z e | %37
"_" [ce]ca afd | [ce]2 c A2 e | [ce]c!2!a (b/a/).g/.b/.a/.f/ | [Ace]3 z2 e | [Bdg]>fe [Bdg]>fe | %42
 [Ace]2 [ca] [ca]2 (a/e/) | [E,Ac]2 [E,Ac] [E,GB]2 !arpeggio![E,GBe] | [Ac]3- [Ac]2 (a/e/) | %45
 [E,Ac]2 [E,Ac] [E,GB]2 !arpeggio![E,GBe] | [A,A]2 z e-e/f/e | a2 z g>fg |"_" [cea]2 z [Ace]2 z | %49
 [EAc]2 z z2 |] %50
V:2
 c | c2 A A2 E | C2 E A2 c | B2 E ABA | E3 z2 z | A,3 D3 | A,2 z z2 z | A,3 D3 | A,3 z2 z | %9
 !arpeggio!E,3/2 z/ z !arpeggio!E,3/2 z/ z | A,3 z2 z | x6 | A,3- A,2 z | x6 | A,3- A, z c | %15
 A2 A E2 E | C3- C z z | A2 A A2 A | E, z z z2 x | x6 | A, z z z2 z | =C2 z D3 | E2 z =F z z | x6 | %24
 x6 | E, z z A,2 z | E, z z z2 z | E, z z A, z z | E, z z z2 z | x6 | x6 | x6 | x6 | x6 | x6 | x6 | %36
 x6 | A,3 D3 | A,2 z z2 z | A,3 D3 | A,3 z2 z | !arpeggio!E,3/2 z/ z !arpeggio!E,3/2 z/ z | %42
 A,2 z z2 z | x6 | A,3- A,2 z | x6 | x6 | z2 z [Bd]3 | A,2 x A,2 x | A,2 x2 x |] %50
V:3
 !1!E | !1!E2 !2!C !2!C2 !2!B, | !3!A,2 !2!B, !2!C2 !1!E | !2!D2 !2!B, !2!C !2!D !2!C | %4
 !2!B,3 x2 !1!E | [!2!C!1!E] !2!C !1!A !1!A !1!F !2!D | [!2!C!1!E]2 !2!C !3!A,2 !1!E | %7
 [!2!C!1!E] !2!C !1!A (!1!B/ !1!A/) !1!G/ !1!B/ !1!A/ !2!F/ | [!3!A,!2!C!1!E]3 x2 !1!E | %9
 [!3!B,!2!D!1!G]3/2 !1!F/ !1!E [!3!B,!2!D!1!G]3/2 !1!F/ !1!E | %10
 [!3!A,!2!C!1!E]2 [!2!C!1!A] [!2!C!1!A]2 (!1!A/ !1!E/) | %11
 [!6!E,,!3!A,!2!C] x [!6!E,,!3!A,!2!C] [!6!E,,!3!G,!2!B,] x [!6!E,,!3!G,!2!B,!1!E] | %12
 [!3!A,!2!C]3- [!3!A,!2!C]2 (!1!A/ !1!E/) | %13
 [!6!E,,!3!A,!2!C]2 [!6!E,,!3!A,!2!C] [!6!E,,!3!G,!2!B,]2 [!6!E,,!3!G,!2!B,!1!E] | %14
 !3!A,3- !3!A, x !1!E | !2!C2 !2!C !2!B,2 !2!B, | !3!A,3- !3!A, x !2!=C | !2!=C2 !2!C !2!C2 !2!C | %18
 [!3!G,!2!B,] !1!E3/4 (!2!^D/4 !2!E3/4) (!2!D/4 !2!E) x [!6!E,,!3!B,!2!=D] | %19
 [!6!E,,!3!B,!2!D]2 [!6!E,,!3!B,!2!D] [!6!E,,!3!B,!2!D]2 [!6!E,,!3!B,!2!D] | %20
 [!3!A,!2!=C] !1!A3/4 (!1!G/4 !1!A3/4) (!1!G/4 !1!A) x (!2!=C/ !2!D/) | %21
 [!3!=G,!2!=C!1!E]2 !1!E{/!1!=G} !1!=F !1!E !1!F | %22
 [!3!=G,!2!=C!1!=G]2 !1!^G !1!A !1!=G/ !1!=F/ !1!E/ !2!D/ | %23
 [!6!=G,,!4!E,!3!=G,!2!=C]2 [!6!G,,!4!E,!3!G,!2!C] [!3!G,!1!E]2 [!4!=F,!2!D] | %24
 [!4!E,!2!=C]3 x2 !1!E | [!3!^G,!2!B,!1!E] !2!B, !2!B, !2!D2 !2!=C | %26
 [!3!G,!2!B,] !1!E3/4 (!2!^D/4 !2!E3/4) (!2!D/4 !2!E) x !1!E | %27
 [!3!G,!2!B,!1!E] !1!B/ !1!G/ !1!E/ !2!D/ [!3!A,!2!=C] !1!A/ !1!E/ !2!D/ !2!C/ | %28
 [!3!G,!2!B,] !1!E3/4 (!2!^D/4 !2!E3/4) (!2!D/4 !2!E2) !1!E | %29
 !2!D/ !2!^C/ (!2!B,/ !2!C/) !1!A !1!E/ !2!D/ (!2!C/ !2!D/) !1!A | %30
 !1!E2 !1!^E [!4!D,!3!A,!2!D!1!F]3/2 !1!F/ !1!G/ !1!A/ | !2!B,2 x !1!E2 x | !2!C2 x2 x !1!E | %33
 !2!D/ !2!C/ (!2!B,/ !2!C/) !1!A3/4 !2!C/4 !1!E/ !2!D/ (!2!C/ !2!D/) !1!A3/4 !1!F/4 | %34
 !1!E2 !1!^E [!4!D,!3!A,!2!D!1!F]3/2 !1!F/ !1!G/ !1!A/ | !2!B,2 x !1!E2 x | %36
 [!5!A,,!3!A,]2 x2 x !1!E | [!2!C!1!E] !2!C !1!A !1!A !1!F !2!D | %38
 [!5!A,,!2!C!1!E]2 !2!C !3!A,2 !1!E | [!2!C!1!E] !2!C !1!A (!1!B/ !1!A/) !1!G/ !1!B/ !1!A/ !2!F/ | %40
 [!3!A,!2!C!1!E]3 x2 !1!E | [!3!B,!2!D!1!G]3/2 !1!F/ !1!E [!3!B,!2!D!1!G]3/2 !1!F/ !1!E | %42
 [!3!A,!2!C!1!E]2 [!2!C!1!A] [!2!C!1!A]2 (!1!A/ !1!E/) | %43
 [!6!E,,!3!A,!2!C]2 [!6!E,,!3!A,!2!C] [!6!E,,!3!G,!2!B,]2 [!6!E,,!3!G,!2!B,!1!E] | %44
 [!3!A,!2!C]3- [!3!A,!2!C]2 (!1!A/ !1!E/) | %45
 [!6!E,,!3!A,!2!C]2 [!6!E,,!3!A,!2!C] [!6!E,,!3!G,!2!B,]2 [!6!E,,!3!G,!2!B,!1!E] | %46
 [!5!A,,!3!A,]2 x !1!E- !1!E/ !1!F/ !1!E | !1!A2 x !1!G3/2 !1!F/ !1!G | %48
 [!3!C!2!E!1!A]2 x [!3!A,!2!C!1!E]2 x | [!4!E,!3!A,!2!C]2 x x2 |] %50
V:4
 !2!C | !2!C2 !3!A, !3!A,2 !4!E, | !5!C,2 !4!E, !3!A,2 !2!C | !3!B,2 !4!E, !3!A, !3!B, !3!A, | %4
 !4!E,3 x2 x | !5!A,,3 !4!D,3 | !5!A,,2 x x2 x | !5!A,,3 !4!D,3 | !5!A,,3 x2 x | %9
 !6!E,,3/2 x/ x !6!E,,3/2 x/ x | !5!A,,3 x2 x | x6 | !5!A,,3- !5!A,,2 x | x6 | %14
 !5!A,,3- !5!A,, x !2!C | !3!A,2 !3!A, !4!E,2 !4!E, | !5!C,3- !5!C, x x | %17
 !3!A,2 !3!A, !3!A,2 !3!A, | !6!E,, x x x2 x | x6 | !5!A,, x x x2 x | !5!=C,2 x !4!D,3 | %22
 !4!E,2 x !4!=F, x x | x6 | x6 | !6!E,, x x !5!A,,2 x | !6!E,, x x x2 x | !6!E,, x x !5!A,, x x | %28
 !6!E,, x x x2 x | x6 | x6 | x6 | x6 | x6 | x6 | x6 | x6 | !5!A,,3 !4!D,3 | x2 x x2 x | %39
 !5!A,,3 !4!D,3 | !5!A,,3 x2 x | !6!E,,3/2 x/ x !6!E,,3/2 x/ x | !5!A,,2 x x2 x | x6 | %44
 !5!A,,3- !5!A,,2 x | x6 | x6 | x2 x [!3!B,!2!D]3 | !5!A,,2 x !5!A,,2 x | !5!A,,2 x2 x |] %50
V:5
 z | z6 | z6 | z6 | z6 |"_" z/ E/A/c/E/A/ z/ F/A/d/F/A/ | z/ E/A/c/E/A/ z/ E/A/c/E/A/ | %7
 z/ E/A/c/E/A/ z/ F/A/d/F/A/ | z/ E/A/c/E/A/ z/ E/A/c/E/A/ | z/ E/G/d/E/G/ z/ E/G/d/E/G/ | %10
 z/ E/A/c/E/A/ z/ E/A/c/E/A/ | z/ E/A/c/E/A/ z/ E/G/B/E/G/ | %12
 z/!<(! E/A/E/c/A/!<)!!>(! e/c/a/e/c/A/!>)! | z/ E/A/c/E/A/ z/ E/G/d/E/G/ | z/ E/A/c/E/A/ A,2 z | %15
 z6 | z6 | z/ E/A/=c/E/A/ z/ E/A/c/E/A/ | z/ E/G/B/E/G/ z/ E/G/B/E/G/ | %19
 z/ E/G/B/E/G/ z/ E/G/B/E/G/ | z/ E/A/=c/E/A/ z/ E/A/c/E/A/ | z/ E/=G/=c/E/G/ z/ D/G/B/D/G/ | %22
 z/!<(! E/=G/=c/E/c/!<)! =F/!>(!.c/.B/.A/.G/.F/!>)! | z/ E/=G/=c/E/G/ z/ =F/G/B/F/G/ | %24
 z/ E/=G/=c/E/G/ =C[EGc] z | z/ E/^G/B/E/G/ z/ E/A/=c/E/A/ | z/ E/G/B/E/G/ z/ E/G/B/E/G/ | %27
 z/ E/G/B/E/G/ z/ E/A/=c/E/A/ | z/ E/G/B/E/G/ z/ E/G/B/E/G/ | %29
 !arpeggio![A,EA^c] z z !arpeggio![B,Gd] z z |!<(! [CA]2 [CA]!<)! !fermata![DA]3/2 z/ z | %31
"_" [EA]2 z [EGB]2 z | [A,EAc]2 z z2 z | !arpeggio![A,EAc] z z !arpeggio![B,Gd] z z | %34
!<(! [CA]2 [CA]!<)! !fermata![DA]3/2 z/ z |"_" [EA]2 z [EGB]2 z | z/ E/A/c/E/A/ z/ E/A/c/E/A/ | %37
"_" z/ E/A/c/E/A/ z/ F/A/d/F/A/ | z/ E/A/c/E/A/ z/ E/A/c/E/A/ | z/ E/A/c/E/A/ z/ F/A/d/F/A/ | %40
 z/ E/A/c/E/A/ z/ E/A/c/E/A/ | z/ E/G/d/E/G/ z/ E/G/d/E/G/ | z/ E/A/c/E/A/ z/ E/A/c/E/A/ | %43
 z/ E/A/c/E/A/ z/ E/G/B/E/G/ | z/!<(! E/A/E/c/A/!<)!!>(! e/c/a/e/c/A/!>)! | %45
 z/ E/A/c/E/A/ z/ E/G/d/E/G/ | z/ E/A/c/E/A/ z/ E/G/d/E/G/ | z/ E/A/c/E/A/ z/ E/G/d/E/G/ | %48
"_" !arpeggio![A,EAc]2 z !arpeggio![A,EAc]2 z | !arpeggio![A,EAc]2 z z2 |] %50
V:6
 x | x6 | x6 | x6 | x6 | A,3 A,3 | A,3 A,3 | A,3 A,3 | A,3 A,3 | E,3 E,3 | A,3 A,3 | E,3 E,3 | %12
 A,6 | E,3 E,3 | A,4 x2 | x6 | x6 | A,3 A,3 | E,3 E,3 | E,3 E,3 | A,3 A,3 | =G,3 G,3 | E,3 =F,3 | %23
 =G,3 G,3 | =C3 C2 z | E,3 E,3 | E,3 E,3 | E,3 E,3 | E,3 E,3 | x6 | x6 | x6 | x6 | x6 | x6 | x6 | %36
 A,3 A,3 | A,3 A,3 | A,3 A,3 | A,3 A,3 | A,3 A,3 | E,3 E,3 | A,3 A,3 | E,3 E,3 | A,6 | E,3 E,3 | %46
 A,3 E,3 | A,3 E,3 | x6 | x5 |] %50
V:7
 x | x6 | x6 | x6 | x6 | %5
 x/ !4!E,/ !3!A,/ !2!C/ !4!E,/ !3!A,/ x/ !4!F,/ !3!A,/ !2!D/ !4!F,/ !3!A,/ | %6
 x/ !4!E,/ !3!A,/ !2!C/ !4!E,/ !3!A,/ x/ !4!E,/ !3!A,/ !2!C/ !4!E,/ !3!A,/ | %7
 x/ !4!E,/ !3!A,/ !2!C/ !4!E,/ !3!A,/ x/ !4!F,/ !3!A,/ !2!D/ !4!F,/ !3!A,/ | %8
 x/ !4!E,/ !3!A,/ !2!C/ !4!E,/ !3!A,/ x/ !4!E,/ !3!A,/ !2!C/ !4!E,/ !3!A,/ | %9
 x/ !4!E,/ !3!G,/ !2!D/ !4!E,/ !3!G,/ x/ !4!E,/ !3!G,/ !2!D/ !4!E,/ !3!G,/ | %10
 x/ !4!E,/ !3!A,/ !2!C/ !4!E,/ !3!A,/ x/ !4!E,/ !3!A,/ !2!C/ !4!E,/ !3!A,/ | %11
 x/ !4!E,/ !3!A,/ !2!C/ !4!E,/ !3!A,/ x/ !4!E,/ !3!G,/ !2!B,/ !4!E,/ !3!G,/ | %12
 x/ !4!E,/ !3!A,/ !4!E,/ !2!C/ !3!A,/ !1!E/ !2!C/ !1!A/ !1!E/ !2!C/ !3!A,/ | %13
 x/ !4!E,/ !3!A,/ !2!C/ !4!E,/ !3!A,/ x/ !4!E,/ !3!G,/ !2!D/ !4!E,/ !3!G,/ | %14
 x/ !4!E,/ !3!A,/ !2!C/ !4!E,/ !3!A,/ !5!A,,2 x | x6 | x6 | %17
 x/ !4!E,/ !3!A,/ !2!=C/ !4!E,/ !3!A,/ x/ !4!E,/ !3!A,/ !2!C/ !4!E,/ !3!A,/ | %18
 x/ !4!E,/ !3!G,/ !2!B,/ !4!E,/ !3!G,/ x/ !4!E,/ !3!G,/ !2!B,/ !4!E,/ !3!G,/ | %19
 x/ !4!E,/ !3!G,/ !2!B,/ !4!E,/ !3!G,/ x/ !4!E,/ !3!G,/ !2!B,/ !4!E,/ !3!G,/ | %20
 x/ !4!E,/ !3!A,/ !2!=C/ !4!E,/ !3!A,/ x/ !4!E,/ !3!A,/ !2!C/ !4!E,/ !3!A,/ | %21
 x/ !4!E,/ !3!=G,/ !2!=C/ !4!E,/ !3!G,/ x/ !4!D,/ !3!G,/ !2!B,/ !4!D,/ !3!G,/ | %22
 x/ !4!E,/ !3!=G,/ !2!=C/ !4!E,/ !2!C/ !4!=F,/ !2!C/ !2!B,/ !3!A,/ !3!G,/ !4!F,/ | %23
 x/ !4!E,/ !3!=G,/ !2!=C/ !4!E,/ !3!G,/ x/ !4!=F,/ !3!G,/ !2!B,/ !4!F,/ !3!G,/ | %24
 x/ !4!E,/ !3!=G,/ !2!=C/ !4!E,/ !3!G,/ !5!=C, [!4!E,!3!G,!2!C] x | %25
 x/ !4!E,/ !3!^G,/ !2!B,/ !4!E,/ !3!G,/ x/ !4!E,/ !3!A,/ !2!=C/ !4!E,/ !3!A,/ | %26
 x/ !4!E,/ !3!G,/ !2!B,/ !4!E,/ !3!G,/ x/ !4!E,/ !3!G,/ !2!B,/ !4!E,/ !3!G,/ | %27
 x/ !4!E,/ !3!G,/ !2!B,/ !4!E,/ !3!G,/ x/ !4!E,/ !3!A,/ !2!=C/ !4!E,/ !3!A,/ | %28
 x/ !4!E,/ !3!G,/ !2!B,/ !4!E,/ !3!G,/ x/ !4!E,/ !3!G,/ !2!B,/ !4!E,/ !3!G,/ | %29
 [!5!A,,!4!E,!3!A,!2!^C] x x [!5!B,,!3!G,!2!D] x x | %30
 [!5!C,!3!A,]2 [!5!C,!3!A,] [!4!D,!3!A,]3/2 x/ x | [!4!E,!3!A,]2 x [!4!E,!3!G,!2!B,]2 x | %32
 [!5!A,,!4!E,!3!A,!2!C]2 x x2 x | [!5!A,,!4!E,!3!A,!2!C] x x [!5!B,,!3!G,!2!D] x x | %34
 [!5!C,!3!A,]2 [!5!C,!3!A,] [!4!D,!3!A,]3/2 x/ x | [!4!E,!3!A,]2 x [!4!E,!3!G,!2!B,]2 x | %36
 x/ !4!E,/ !3!A,/ !2!C/ !4!E,/ !3!A,/ x/ !4!E,/ !3!A,/ !2!C/ !4!E,/ !3!A,/ | %37
 x/ !4!E,/ !3!A,/ !2!C/ !4!E,/ !3!A,/ x/ !4!F,/ !3!A,/ !2!D/ !4!F,/ !3!A,/ | %38
 x/ !4!E,/ !3!A,/ !2!C/ !4!E,/ !3!A,/ x/ !4!E,/ !3!A,/ !2!C/ !4!E,/ !3!A,/ | %39
 x/ !4!E,/ !3!A,/ !2!C/ !4!E,/ !3!A,/ x/ !4!F,/ !3!A,/ !2!D/ !4!F,/ !3!A,/ | %40
 x/ !4!E,/ !3!A,/ !2!C/ !4!E,/ !3!A,/ x/ !4!E,/ !3!A,/ !2!C/ !4!E,/ !3!A,/ | %41
 x/ !4!E,/ !3!G,/ !2!D/ !4!E,/ !3!G,/ x/ !4!E,/ !3!G,/ !2!D/ !4!E,/ !3!G,/ | %42
 x/ !4!E,/ !3!A,/ !2!C/ !4!E,/ !3!A,/ x/ !4!E,/ !3!A,/ !2!C/ !4!E,/ !3!A,/ | %43
 x/ !4!E,/ !3!A,/ !2!C/ !4!E,/ !3!A,/ x/ !4!E,/ !3!G,/ !2!B,/ !4!E,/ !3!G,/ | %44
 x/ !4!E,/ !3!A,/ !4!E,/ !2!C/ !3!A,/ !1!E/ !2!C/ !1!A/ !1!E/ !2!C/ !3!A,/ | %45
 x/ !4!E,/ !3!A,/ !2!C/ !4!E,/ !3!A,/ x/ !4!E,/ !3!G,/ !2!D/ !4!E,/ !3!G,/ | %46
 x/ !4!E,/ !3!A,/ !2!C/ !4!E,/ !3!A,/ x/ !4!E,/ !3!G,/ !2!D/ !4!E,/ !3!G,/ | %47
 x/ !4!E,/ !3!A,/ !2!C/ !4!E,/ !3!A,/ x/ !4!E,/ !3!G,/ !2!D/ !4!E,/ !3!G,/ | %48
 [!5!A,,!4!E,!3!A,!2!C]2 x [!5!A,,!4!E,!3!A,!2!C]2 x | [!5!A,,!4!E,!3!A,!2!C]2 x x2 |] %50
V:8
 x | x6 | x6 | x6 | x6 | !5!A,,3 !5!A,,3 | !5!A,,3 !5!A,,3 | !5!A,,3 !5!A,,3 | !5!A,,3 !5!A,,3 | %9
 !6!E,,3 !6!E,,3 | !5!A,,3 !5!A,,3 | !6!E,,3 !6!E,,3 | !5!A,,6 | !6!E,,3 !6!E,,3 | !5!A,,4 x2 | %15
 x6 | x6 | !5!A,,3 !5!A,,3 | !6!E,,3 !6!E,,3 | !6!E,,3 !6!E,,3 | !5!A,,3 !5!A,,3 | %21
 !6!=G,,3 !6!G,,3 | !6!E,,3 !6!=F,,3 | !6!=G,,3 !6!G,,3 | !5!=C,3 x2 x | !6!E,,3 !6!E,,3 | %26
 !6!E,,3 !6!E,,3 | !6!E,,3 !6!E,,3 | !6!E,,3 !6!E,,3 | x6 | x6 | x6 | x6 | x6 | x6 | x6 | %36
 !5!A,,3 !5!A,,3 | !5!A,,3 !5!A,,3 | !5!A,,3 !5!A,,3 | !5!A,,3 !5!A,,3 | !5!A,,3 !5!A,,3 | %41
 !6!E,,3 !6!E,,3 | !5!A,,3 !5!A,,3 | !6!E,,3 !6!E,,3 | !5!A,,6 | !6!E,,3 !6!E,,3 | %46
 !5!A,,3 !6!E,,3 | !5!A,,3 !6!E,,3 | x6 | x5 |] %50

